svg/u1f531.svg

<svg viewBox="0 0 128 128" xmlns="http://www.w3.org/2000/svg">
  <g>
    <path d="M80.01,116.64c0,1.08-0.67,2.04-1.68,2.43c-2,0.77-6.05,1.77-13.61,1.77 c-7.75,0-11.98-1.05-14.03-1.83c-1-0.38-1.65-1.35-1.65-2.42v-15.23h30.98V116.64z" fill="#FFCA28"/>
    <path d="M80.01,116.64 c0,0-2.56,4.2-15.3,4.2s-15.68-4.25-15.68-4.25" fill="none" stroke="#FFCA28" stroke-width="7" stroke-linecap="round" stroke-miterlimit="10"/>
    <path d="M52.53,104.8l-3.5,1.43v1.6c0,0,3.67,1.24,14.97,1.24s16.01-1.3,16.01-1.3v-3.53L52.53,104.8z" fill="#EA9843"/>
    <path d="M107.27,40.85l9.75,0.62c0.61,0.04,1.06-0.57,0.84-1.15L105.04,6.89c-0.33-0.86-1.53-0.92-1.93-0.09 c-2.24,4.56-7.19,15.64-7.68,25.03l0,0c-1.54,14.93,4.18,20.17,6.65,30.12c3.45,13.95-9.19,20.91-24.3,23.15 c-1.71,0.25-3.27-1.03-3.38-2.75l-5.61-49.16l7.14,1.92c0.67,0.18,1.26-0.48,1.01-1.13L64.98,3.63C64.91,3.46,64.62,3,64,3 c-0.62,0-0.91,0.46-0.98,0.63L51.08,33.97c-0.25,0.65,0.33,1.31,1.01,1.13l7.14-1.92l-5.61,49.16c-0.11,1.72-1.67,3.01-3.38,2.75 c-15.11-2.24-27.76-9.2-24.3-23.15c2.46-9.94,8.23-15.04,6.65-30.12l0,0c-0.49-9.39-5.44-20.46-7.68-25.03 c-0.41-0.83-1.6-0.77-1.93,0.09L10.14,40.33c-0.22,0.58,0.23,1.19,0.84,1.15l9.75-0.62C19.7,46.6,7.21,57.77,7.21,75.27 c0,15.6,17.67,31.87,56.79,31.87s56.79-16.28,56.79-31.87C120.79,57.77,105.96,50.8,107.27,40.85z" fill="#FFCA28"/>
    <path d="M10.17,40.33l12.82-6.36c0.52,1.92-2.23,6.88-2.23,6.88l-9.75,0.62c0,0-0.46,0.04-0.76-0.25 C9.96,40.93,10.17,40.33,10.17,40.33z" fill="#EA9843"/>
    <path d="M62.29,11.55c0.23-0.59,1.1-0.45,1.13,0.18c0.09,1.94,0.15,4.57-0.05,6.5 c-0.62,5.85-4.45,8.99-6.58,10.31c-0.48,0.29-1.05-0.19-0.85-0.72L62.29,11.55z" fill="#FFECB3"/>
    <path d="M104.46,15.39c0.01-3.62-0.53-5.01-1.86-2.11c-1.76,3.85-3.3,10.12-3.99,15.35 c-0.44,3.34,1.81,0.76,3.06-1.65C102.81,24.81,104.45,21.19,104.46,15.39z" fill="#FFECB3"/>
    <path d="M23.13,14.19c0.12-0.48,0.82-0.46,0.91,0.02c0.72,3.55,1.08,8.37-1.59,13.9 c-1.83,3.79-5.14,6.17-7.07,7.31c-0.42,0.25-0.89-0.22-0.64-0.64c1.1-1.88,3.06-5.48,4.91-10.06 C21.43,20.33,22.56,16.41,23.13,14.19z" fill="#FFECB3"/>
    <path d="M59.1,34.4c0,0,1.1-5.48,1.1-5.71c0-0.19-6.84,4.55-9.02,6.07c0.19,0.27,0.53,0.43,0.9,0.33 L59.1,34.4z" fill="#EA9843"/>
    <path d="M114.93,91.57c2.01-2.48,3.47-5.12,4.43-7.81c0.98-2.78,1.44-5.65,1.44-8.49 c0-17.5-12.16-27.95-13.52-34.41l0.03,0l0,0l9.74,0.62c0.61,0.03,1.04-0.58,0.83-1.15l-15.28-10.31 c-2.23,8.36,1.14,16.42,4.83,24.11c8.85,18.76,5.5,26.7-4.62,33.39c-8.17,5.4-24.07,9.34-33.44,9.12 c-2.53-0.06,2.24-5.91,6.38-12.02c-0.75-0.5-1.27-1.31-1.34-2.28l-5.61-49.16l7.14,1.92c0.67,0.18,1.26-0.48,1.01-1.13l-10.26-7.4 c-0.67-0.48-1.6-0.01-1.61,0.81L64,107.14C89.06,107.14,107.65,100.46,114.93,91.57z" fill="#EA9843"/>
    <path d="M68.86,33.97c0,0-1.06-5.05-1.06-5.28c0-0.19,6.84,4.55,9.02,6.07c-0.19,0.27-0.53,0.43-0.9,0.33 L68.86,33.97z" fill="#EA9843"/>
    <path d="M9.56,84.91c5.91,12.16,23.58,22.23,54.44,22.23c0,0-4.87-8.01-11.93-8.01s-23.23-0.95-33.2-8.41 c-3.04-2.28-5.38-4.8-7.11-7.07C10.85,82.47,8.91,83.56,9.56,84.91z" fill="#EA9843"/>
    <path d="M13.36,72.2c-1.43-10.97,8.77-21.51,8.77-21.51c0.73-0.99,2.27-0.15,1.85,1 c0,0-7.15,10.93-4.95,20.96c2.1,9.58,11.57,13.88,11.57,13.88c1.02,0.6,0.24,2.22-0.89,1.88C24.22,86.79,14.57,81.46,13.36,72.2z" fill="#FFECB3"/>
    <path d="M49.88,116.57c-0.65,1.33,0.32,2.86,3.17,3.67c2.19,0.62,5.25,1.07,5.43-1.09 c0.08-1-1.06-1.81-5.22-2.83C52.48,116.13,50.48,115.35,49.88,116.57z" fill="#FFECB3"/>
    <path d="M49.09,113.63c1.17,0.71,6.66,3.71,15.63,3.71c9.97,0,15.3-4.46,15.3-4.46v-11.52l-6.29,2.88 c0,0-0.19,2.76-0.19,6.86c0,4.1-9.3,4.08-10.51,4.08c-11.53,0-13.99-4.46-14-4.46l0.02,2.87C49.05,113.6,49.07,113.62,49.09,113.63 z" fill="#EA9843"/>
  </g>
  <path d="M74.41,115.78c0,0,3.31-0.91,4.73,1.09c1.9,2.68,0.32,4.61,0.32,4.61s4.92-2.23,4.05-5.49 c-0.82-3.09-3.5-3.1-3.5-3.1l-5.03,1.62L74.41,115.78z" fill="#EA9843"/>
</svg>

<svg viewBox="0 0 128 128" xmlns="http://www.w3.org/2000/svg">
  <defs/>
  <path d="M80.01,116.64 C80.01,117.72 79.34,118.68 78.33,119.07 C76.33,119.84 72.28,120.84 64.72,120.84 C56.97,120.84 52.74,119.79 50.69,119.01 C49.69,118.63 49.04,117.66 49.04,116.59 L49.04,101.36 L80.02,101.36 L80.02,116.64 Z" fill="#FFCA28"/>
  <path d="M82.999,118.462 Q79.416,124.34 64.71,124.34 Q50.135,124.34 46.152,118.581 Q45.327,117.389 45.587,115.963 Q45.847,114.536 47.039,113.712 Q48.231,112.887 49.657,113.147 Q51.084,113.407 51.908,114.599 L51.939,114.573 Q52.524,115.064 53.546,115.531 Q57.509,117.34 64.71,117.34 Q71.89,117.34 75.648,115.573 Q76.578,115.135 77.074,114.691 L77.021,114.818 Q77.776,113.58 79.185,113.239 Q80.594,112.897 81.832,113.651 Q83.07,114.406 83.411,115.815 Q83.753,117.224 82.999,118.462 Z" fill="#FFCA28"/>
  <path d="M52.53,104.8 L49.03,106.23 L49.03,107.83 C49.03,107.83 52.7,109.07 64,109.07 C75.3,109.07 80.01,107.77 80.01,107.77 L80.01,104.24 L52.53,104.8 Z" fill="#EA9843"/>
  <path d="M107.27,40.85 L117.02,41.47 C117.63,41.51 118.08,40.9 117.86,40.32 L105.04,6.89 C104.71,6.03 103.51,5.97 103.11,6.8 C100.87,11.36 95.92,22.44 95.43,31.83 L95.43,31.83 C93.89,46.76 99.61,52 102.08,61.95 C105.53,75.9 92.89,82.86 77.78,85.1 C76.07,85.35 74.51,84.07 74.4,82.35 L68.79,33.19 L75.93,35.11 C76.6,35.29 77.19,34.63 76.94,33.98 L64.98,3.63 C64.91,3.46 64.62,3 64,3 C63.38,3 63.09,3.46 63.02,3.63 L51.08,33.97 C50.83,34.62 51.41,35.28 52.09,35.1 L59.23,33.18 L53.62,82.34 C53.51,84.06 51.95,85.35 50.24,85.09 C35.13,82.85 22.48,75.89 25.94,61.94 C28.4,52 34.17,46.9 32.59,31.82 L32.59,31.82 C32.1,22.43 27.15,11.36 24.91,6.79 C24.5,5.96 23.31,6.02 22.98,6.88 L10.14,40.33 C9.92,40.91 10.37,41.52 10.98,41.48 L20.73,40.86 C19.7,46.6 7.21,57.77 7.21,75.27 C7.21,90.87 24.88,107.14 64,107.14 C103.12,107.14 120.79,90.86 120.79,75.27 C120.79,57.77 105.96,50.8 107.27,40.85 Z" fill="#FFCA28"/>
  <path d="M10.17,40.33 L22.99,33.97 C23.51,35.89 20.76,40.85 20.76,40.85 L11.01,41.47 C11.01,41.47 10.55,41.51 10.25,41.22 C9.96,40.93 10.17,40.33 10.17,40.33 Z" fill="#EA9843"/>
  <path d="M62.29,11.55 C62.52,10.96 63.39,11.1 63.42,11.73 C63.51,13.67 63.57,16.3 63.37,18.23 C62.75,24.08 58.92,27.22 56.79,28.54 C56.31,28.83 55.74,28.35 55.94,27.82 L62.29,11.55 Z" fill="#FFECB3"/>
  <path d="M104.46,15.39 C104.47,11.77 103.93,10.38 102.6,13.28 C100.84,17.13 99.3,23.4 98.61,28.63 C98.17,31.97 100.42,29.39 101.67,26.98 C102.81,24.81 104.45,21.19 104.46,15.39 Z" fill="#FFECB3"/>
  <path d="M23.13,14.19 C23.25,13.71 23.95,13.73 24.04,14.21 C24.76,17.76 25.12,22.58 22.45,28.11 C20.62,31.9 17.31,34.28 15.38,35.42 C14.96,35.67 14.49,35.2 14.74,34.78 C15.84,32.9 17.8,29.3 19.65,24.72 C21.43,20.33 22.56,16.41 23.13,14.19 Z" fill="#FFECB3"/>
  <path d="M59.1,34.4 C59.1,34.4 60.2,28.92 60.2,28.69 C60.2,28.5 53.36,33.24 51.18,34.76 C51.37,35.03 51.71,35.19 52.08,35.09 L59.1,34.4 Z" fill="#EA9843"/>
  <path d="M114.93,91.57 C116.94,89.09 118.4,86.45 119.36,83.76 C120.34,80.98 120.8,78.11 120.8,75.27 C120.8,57.77 108.64,47.32 107.28,40.86 L107.31,40.86 L107.31,40.86 L117.05,41.48 C117.66,41.51 118.09,40.9 117.88,40.33 L102.6,30.02 C100.37,38.38 103.74,46.44 107.43,54.13 C116.28,72.89 112.93,80.83 102.81,87.52 C94.64,92.92 78.74,96.86 69.37,96.64 C66.84,96.58 71.61,90.73 75.75,84.62 C75,84.12 74.48,83.31 74.41,82.34 L68.8,33.18 L75.94,35.1 C76.61,35.28 77.2,34.62 76.95,33.97 L66.69,26.57 C66.02,26.09 65.09,26.56 65.08,27.38 L64,107.14 C89.06,107.14 107.65,100.46 114.93,91.57 Z" fill="#EA9843"/>
  <path d="M68.86,33.97 C68.86,33.97 67.8,28.92 67.8,28.69 C67.8,28.5 74.64,33.24 76.82,34.76 C76.63,35.03 76.29,35.19 75.92,35.09 L68.86,33.97 Z" fill="#EA9843"/>
  <path d="M9.56,84.91 C15.47,97.07 33.14,107.14 64,107.14 C64,107.14 59.13,99.13 52.07,99.13 C45.01,99.13 28.84,98.18 18.87,90.72 C15.83,88.44 13.49,85.92 11.76,83.65 C10.85,82.47 8.91,83.56 9.56,84.91 Z" fill="#EA9843"/>
  <path d="M13.36,72.2 C11.93,61.23 22.13,50.69 22.13,50.69 C22.86,49.7 24.4,50.54 23.98,51.69 C23.98,51.69 16.83,62.62 19.03,72.65 C21.13,82.23 30.6,86.53 30.6,86.53 C31.62,87.13 30.84,88.75 29.71,88.41 C24.22,86.79 14.57,81.46 13.36,72.2 Z" fill="#FFECB3"/>
  <path d="M49.88,116.57 C49.23,117.9 50.2,119.43 53.05,120.24 C55.24,120.86 58.3,121.31 58.48,119.15 C58.56,118.15 57.42,117.34 53.26,116.32 C52.48,116.13 50.48,115.35 49.88,116.57 Z" fill="#FFECB3"/>
  <path d="M49.09,113.63 C50.26,114.34 55.75,117.34 64.72,117.34 C74.69,117.34 80.02,112.88 80.02,112.88 L80.02,101.36 L73.73,104.24 C73.73,104.24 73.54,107 73.54,111.1 C73.54,115.2 64.24,115.18 63.03,115.18 C51.5,115.18 49.04,110.72 49.03,110.72 L49.05,113.59 C49.05,113.6 49.07,113.62 49.09,113.63 Z" fill="#EA9843"/>
  <path d="M74.41,115.78 C74.41,115.78 77.72,114.87 79.14,116.87 C81.04,119.55 79.46,121.48 79.46,121.48 C79.46,121.48 84.38,119.25 83.51,115.99 C82.69,112.9 80.01,112.89 80.01,112.89 L74.98,114.51 L74.41,115.78 Z" fill="#EA9843"/>
</svg>
